Suru++-Ubuntu/apps/symbolic/vectr-symbolic.svg

<svg width="16" height="16" version="1.1" xmlns="http://www.w3.org/2000/svg">
 <path class="ColorScheme-Text" d="m0.5 0.50000138v3.7484033h1.25v6.3864383l-1.25 1.26655v3.59222c0.7086988 0.01249 1.13537 0.0034 1.875 0 0.662585-0.0031 1.6796876 0 1.6796876 0 0.00488 2.05e-4 0.9861412-1.006593 1.2280275-1.249468h6.4672849v1.249468h3.75v-3.748403h-3.75v1.249468h-5.2368161c3.0118829-3.0528756 8.7915041-8.9415026 8.7915041-8.9415026l-3.554688-3.553174-8.75 8.8682916v-5.1198883h1.2500001v-3.7484033zm1.25 1.2494675h1.25v1.2494676h-1.25zm9.101563 1.4446969 1.757812 1.7570644-6.7675787 6.9477238-1.7602537-1.744864zm4.609375 6.0521092c-0.0087 3.75e-5 -0.03701 0.00737-0.04639 0.00737h0.08545c-0.01513-0.0025-0.02356-0.00487-0.03906-0.00737zm-2.460938 3.748403h1.25v1.249467h-1.25z" style="fill:#808080"/>
</svg>

<svg xmlns="http://www.w3.org/2000/svg" width="16" height="16" version="1.1">
 <path style="fill:#808080" class="ColorScheme-Text" d="M 0.5,0.50000138 V 4.2484047 h 1.25 v 6.2473373 0.139101 l -1.25,1.26655 v 1.718018 1.874202 c 0.7086988,0.01249 1.13537,0.0034 1.875,0 0.662585,-0.0031 1.6796876,0 1.6796876,0 0.00488,2.05e-4 0.9861412,-1.006593 1.2280275,-1.249468 H 5.5000001 11.75 v 1.249468 H 15.5 V 11.74521 H 14.25 13 11.75 v 1.249468 H 6.5131839 C 9.5250668,9.9418024 15.304688,4.0531754 15.304688,4.0531754 L 11.75,0.50000138 3,9.368293 V 4.2484047 H 4.2500001 V 2.9989365 1.7494689 0.50000138 Z M 1.75,1.7494689 H 3 V 2.9989365 H 1.75 Z M 10.851563,3.1941658 12.609375,4.9512302 5.8417963,11.898954 4.0815426,10.15409 Z m 4.609375,6.0521092 c -0.0087,3.75e-5 -0.03701,0.00737 -0.04639,0.00737 h 0.08545 c -0.01513,-0.0025 -0.02356,-0.00487 -0.03906,-0.00737 z M 13,12.994678 h 1.25 v 1.249467 H 13 Z"/>
</svg>
